images/golos.svg

<?xml version="1.0" encoding="utf-8"?>
<!-- Generator: Adobe Illustrator 22.0.0, SVG Export Plug-In . SVG Version: 6.00 Build 0)  -->
<svg version="1.1" id="Слой_1" xmlns="http://www.w3.org/2000/svg" xmlns:xlink="http://www.w3.org/1999/xlink" x="0px" y="0px"
	 viewBox="0 0 32 32" style="enable-background:new 0 0 32 32;" xml:space="preserve">
<style type="text/css">
	.st0{fill:#EB0000;}
	.st1{fill:#285FAC;}
	.st2{fill:#FFFFFF;}
</style>
<title>golos</title>
<desc>Created with Sketch.</desc>
<g id="лендинг">
	<g id="Sharpay-home-Copy" transform="translate(-46.000000, -730.000000)">
		<g id="golos" transform="translate(46.000000, 730.000000)">
			<path class="st0" d="M15,13.7c1.4-0.6,2.4-2,2.4-3.6c0-2.1-1.7-3.9-3.8-3.9c-2.2,0-3.9,1.7-3.9,3.9c0,1.2,0.6,2.2,1.3,2.9l-2,1.4
				C9,14.4,13,14.7,15,13.7z"/>
			<path class="st1" d="M23.4,17.9c-1.9-0.7-4.6,0.6-4.6,0.6s2-2.8,2-6.9c0-3-1.1-4-1.9-4.7C19,7.4,19,7.8,19,8.2
				c0,4.4-2.7,7.3-7.1,7.3c-1.8,0-3.5,0-4.8-1c0,0.1,0.2,0.9,1,1.8c0.3,0.4,0.8,0.8,1.4,1.1c1.9,1.1,3.5,1.2,3.6,1.2
				c0,2.2-1.5,5.3-3.7,5.3c-0.4,0-0.7,0-1-0.1C7.5,23.6,7,23.2,7,23.2s0.3,2.3,2.7,2.5c2.7,0.3,3.9-0.3,6.6-1.9
				c2.8-1.7,4.9-3.6,6.6-3.1c1.3,0.3,1.5,2.3,1.5,2.3s0.4-0.8,0.5-1.5C25,20.8,25.2,18.7,23.4,17.9z"/>
			<path id="Shape" class="st2" d="M16,0C7.2,0,0,7.2,0,16s7.2,16,16,16s16-7.2,16-16S24.8,0,16,0z M9.7,10.1c0-2.2,1.7-3.9,3.9-3.9
				c2.1,0,3.8,1.8,3.8,3.9c0,1.6-1,3-2.4,3.6c-2,1-6,0.7-6,0.7l2-1.4C10.3,12.3,9.7,11.3,9.7,10.1z M24.9,21.5
				c-0.1,0.7-0.5,1.5-0.5,1.5s-0.2-2-1.5-2.3c-1.7-0.5-3.8,1.4-6.6,3.1c-2.7,1.6-3.9,2.2-6.6,1.9C7.3,25.5,7,23.2,7,23.2
				s0.5,0.4,1.4,0.6c0.3,0.1,0.6,0.1,1,0.1c2.2,0,3.7-3.1,3.7-5.3l0,0c-0.1,0-1.7-0.1-3.6-1.2c-0.6-0.3-1.1-0.7-1.4-1.1
				c-0.8-0.9-1-1.7-1-1.8c1.3,1,3,1,4.8,1c4.4,0,7.1-2.9,7.1-7.3c0-0.4,0-0.8-0.1-1.3c0.8,0.7,1.9,1.7,1.9,4.7c0,4.1-2,6.9-2,6.9
				s2.7-1.3,4.6-0.6C25.2,18.7,25,20.8,24.9,21.5z"/>
		</g>
	</g>
</g>
</svg>

<?xml version="1.0" encoding="UTF-8"?>
<svg width="32px" height="32px" viewBox="0 0 32 32" version="1.1" xmlns="http://www.w3.org/2000/svg" xmlns:xlink="http://www.w3.org/1999/xlink">
    <!-- Generator: Sketch 47.1 (45422) - http://www.bohemiancoding.com/sketch -->
    <title>golos</title>
    <desc>Created with Sketch.</desc>
    <defs></defs>
    <g id="лендинг" stroke="none" stroke-width="1" fill="none" fill-rule="evenodd">
        <g id="Sharpay-home-Copy" transform="translate(-46.000000, -730.000000)" fill-rule="nonzero" fill="#FFFFFF">
            <g id="golos" transform="translate(46.000000, 730.000000)">
                <path d="M16,0 C7.2,0 0,7.2 0,16 C0,24.8 7.2,32 16,32 C24.8,32 32,24.8 32,16 C32,7.2 24.8,0 16,0 Z M9.7,10.1 C9.7,7.9 11.4,6.2 13.6,6.2 C15.7,6.2 17.4,8 17.4,10.1 C17.4,11.7 16.4,13.1 15,13.7 C13,14.7 9,14.4 9,14.4 L11,13 C10.3,12.3 9.7,11.3 9.7,10.1 Z M24.9,21.5 C24.8,22.2 24.4,23 24.4,23 C24.4,23 24.2,21 22.9,20.7 C21.2,20.2 19.1,22.1 16.3,23.8 C13.6,25.4 12.4,26 9.7,25.7 C7.3,25.5 7,23.2 7,23.2 C7,23.2 7.5,23.6 8.4,23.8 C8.7,23.9 9,23.9 9.4,23.9 C11.6,23.9 13.1,20.8 13.1,18.6 C13.1,18.6 13.1,18.6 13.1,18.6 C13,18.6 11.4,18.5 9.5,17.4 C8.9,17.1 8.4,16.7 8.1,16.3 C7.3,15.4 7.1,14.6 7.1,14.5 C8.4,15.5 10.1,15.5 11.9,15.5 C16.3,15.5 19,12.6 19,8.2 C19,7.8 19,7.4 18.9,6.9 C19.7,7.6 20.8,8.6 20.8,11.6 C20.8,15.7 18.8,18.5 18.8,18.5 C18.8,18.5 21.5,17.2 23.4,17.9 C25.2,18.7 25,20.8 24.9,21.5 Z" id="Shape"></path>
            </g>
        </g>
    </g>
</svg>
